Papirus/32x32/apps/cheese.svg

<svg xmlns="http://www.w3.org/2000/svg" width="32" height="32" version="1">
 <rect style="opacity:0.2" width="28" height="22" x="-31" y="-27" rx="1.4" ry="1.375" transform="matrix(0,-1,-1,0,0,0)"/>
 <rect style="fill:#cccccc" width="28" height="22" x="-30" y="-27" rx="1.4" ry="1.375" transform="matrix(0,-1,-1,0,0,0)"/>
 <rect style="fill:#9b62b4" width="24" height="18" x="-28" y="-25" rx="0" ry="0" transform="matrix(0,-1,-1,0,0,0)"/>
 <path style="fill:none;stroke:#3f3f3f;stroke-width:3;stroke-linecap:round;stroke-linejoin:round" d="m 11.5,20.5 c 0,0 0.375,3 4.5,3 4.125,0 4.5,-3 4.5,-3"/>
 <circle style="opacity:0.2" cx="11.5" cy="12.5" r="2.5"/>
 <circle style="fill:#ffffff" cx="11.5" cy="11.5" r="2.5"/>
 <circle style="fill:#3f3f3f" cx="12" cy="11.5" r="1.5"/>
 <circle style="opacity:0.2" cx="20.5" cy="12.5" r="2.5"/>
 <circle style="fill:#ffffff" cx="20.5" cy="11.5" r="2.5"/>
 <circle style="fill:#3f3f3f" cx="21" cy="11.5" r="1.5"/>
 <path style="fill:#ffffff;opacity:0.2" d="M 6.375 2 C 5.61325 2 5 2.6247906 5 3.4003906 L 5 4.4003906 C 5 3.6247906 5.61325 3 6.375 3 L 25.625 3 C 26.38675 3 27 3.6247906 27 4.4003906 L 27 3.4003906 C 27 2.6247906 26.38675 2 25.625 2 L 6.375 2 z"/>
</svg>

<svg xmlns="http://www.w3.org/2000/svg" width="32" height="32" version="1">
 <path fill="#ccc" d="m27 28.5v-25c0-0.831-0.669-1.5-1.5-1.5h-19c-0.831 0-1.5 0.669-1.5 1.5v25c0 0.831 0.669 1.5 1.5 1.5h19c0.831 0 1.5-0.669 1.5-1.5z"/>
 <path opacity=".2" d="m5 28.5v1c0 0.831 0.669 1.5 1.5 1.5h19c0.831 0 1.5-0.669 1.5-1.5v-1c0 0.831-0.669 1.5-1.5 1.5h-19c-0.831 0-1.5-0.669-1.5-1.5z"/>
 <rect fill="#b54fab" width="24" height="18" x="-28" y="-25" rx="0" ry="0" transform="matrix(0,-1,-1,0,0,0)"/>
 <path fill="#fff" opacity=".1" d="m6.5 2c-0.831 0-1.5 0.669-1.5 1.5v1c0-0.831 0.669-1.5 1.5-1.5h19c0.831 0 1.5 0.669 1.5 1.5v-1c0-0.831-0.669-1.5-1.5-1.5z"/>
 <path opacity=".2" d="m16 11c-3.3137 0-6 2.6863-6 6s2.6863 6 6 6 6-2.6863 6-6-2.6863-6-6-6zm-3 3a0.99991 1.0004 0 0 1 1 1 0.99991 1.0004 0 0 1 -1 1 0.99991 1.0004 0 0 1 -1 -1 0.99991 1.0004 0 0 1 1 -1zm6 0a0.99991 0.99991 0 0 1 1 1 0.99991 0.99991 0 0 1 -1 1 0.99991 0.99991 0 0 1 -1 -1 0.99991 0.99991 0 0 1 1 -1zm-6 5h6a3.7566 5.0008 0 0 1 -3 2 3.7566 5.0008 0 0 1 -3 -2z"/>
 <path fill="#c38bd7" d="m16 10c-3.314 0-6 2.686-6 6s2.686 6 6 6 6-2.686 6-6-2.686-6-6-6zm-3 3a0.99991 1.0004 0 0 1 1 1 0.99991 1.0004 0 0 1 -1 1 0.99991 1.0004 0 0 1 -1 -1 0.99991 1.0004 0 0 1 1 -1zm6 0a0.99991 0.99991 0 0 1 1 1 0.99991 0.99991 0 0 1 -1 1 0.99991 0.99991 0 0 1 -1 -1 0.99991 0.99991 0 0 1 1 -1zm-6 5h6a3.7566 5.0008 0 0 1 -3 2 3.7566 5.0008 0 0 1 -3 -2z"/>
</svg>
